X: 11
T: Czego ty jęczysz, ty, bujny wietrze
C: Bolesław Jan Ćwiklicz
%%abc-version 2.0
%%abcx-abcm2ps-target-version 5.9.1 (29 Sep 2008)
%%abc-creator hum2abc beta
%%abcx-conversion-date 2021/10/04 07:38:39
%%abc-edited-by Marcin Jachim
%%abc-edited-by Kamil Watkowski
%%abcx-initial-encoding-date 2021-08-12
%%humdrum-veritas 2769530096
%%humdrum-veritas-data 3023859072
%%linebreak <none>
%%barnumbers 0
L: 1/8
M: 6/8
N: Derived from pl-kozmzk--mzk-m-137--009_cwiklicz-boleslaw-jan-czego-ty-jeczysz-ty-bujny-wietrze.krn
%%staves {1 2}
V: 1 clef=treble
V: 2 clef=bass
K: F
[V:1] fed^c2A & d^cdA2A | 
[V:2] A,A,A, G,F,E, & D,E,F, E,D,^C, | 
[V:1] d2F/G/A2A & A2D/E/F2E | 
[V:2] F,2D, D,=B,,^C, & D,=C,B,,A,,2A,, | 
[V:1] GcBA2G/F/ & EEE FED | 
[V:2] D,=C,C,C,2B,, & B,,A,,G,,F,,2G,, | 
[V:1] F2EA3 & D2EF2A | 
[V:2] A,,=B,,^C,D,2E, & A,,2>-A,,2=B,,^C, | 
[V:1] fed^c2A & d^cdA2A | 
[V:2] A,A,A, G,F,E, & D,E,F, E,D,^C, | 
[V:1] d2F/G/A2A & A2D/E/F2E | 
[V:2] F,2D, D,=B,,^C, & D,=C,B,,A,,2A,, | 
[V:1] BAGc2B/A/ & EFE FEF | 
[V:2] D,D,D,=C,2C, & G,,A,,B,, A,,G,,F,, | 
[V:1] G2DE3 & D3^C3 | 
[V:2] B,,2A,, G,,A,,B,, & G,,E,,F,, G,,A,,B,, | 
[V:1] FG>A AGF & DD>E FD^C | 
[V:2] D,=B,,>^C, D,=B,,^C, & A,,/B,,/A,,/_B,,/A,,/B,,/ A,,/B,,/A,,/_B,,/A,,/B,,/ | 
[V:1] GA>B BAG & EF>G GFE | 
[V:2] D,D,>D,D,2D, & A,,/B,,/A,,/B,,/A,,/B,,/ A,,/B,,/A,,/B,,/A,,/B,,/ | 
[V:1] A=B^cf2e & FFA d=B^c | 
[V:2] D,D,E, A,^G,=G, & A,,/B,,/A,,/B,,/A,,/B,,/ A,,/B,,/A,,/B,,/A,,/B,,/ | 
[V:1] d2^cd2e & AFGA2A | 
[V:2] F,D,E,F,2A, & A,,/B,,/A,,/B,,/A,,/B,,/ A,,/B,,/A,,/B,,/=B,,/^C,/ | 
[V:1] fed^c2A & d^cdA2A | 
[V:2] A,2A, G,F,E, & D,E,F, E,D,^C, | 
[V:1] d2F/G/A2A & A2D/E/F2E | 
[V:2] F,2D, D,=B,,^C, & D,=C,B,,A,,2A,, | 
[V:1] GcBA2G/E/ & EEE FED | 
[V:2] D,=C,C,C,2B,, & B,,A,,G,,F,,2G,, | 
[V:1] F2ED3 & D2^C DB,!fermata!A, |]  
[V:2] A,,=B,,A,, A,,G,,!fermata!A,, & A,,^G,,=G,, F,,E,,!fermata!D,, |]  


